app/assets/img/work/ttl-ieerabi-pc.svg

<svg fill="none" height="26" viewBox="0 0 173 26" width="173" xmlns="http://www.w3.org/2000/svg"><path d="m6.04 8.408v16.592h-4.96v-16.592zm.576-4.544c0 .39467-.08.768-.24 1.12-.16.34133-.37867.64533-.656.912-.27733.256-.60267.464-.976.624-.36267.14933-.752.224-1.168.224-.40533 0-.784-.07467-1.136-.224-.352-.16-.66667-.368-.944-.624-.26667-.26667-.48-.57067-.64-.912-.149333-.352-.224-.72533-.224-1.12 0-.40533.074667-.784.224-1.136.16-.352.37333-.66133.64-.928.27733-.26667.592-.47467.944-.624s.73067-.224 1.136-.224c.416 0 .80533.07467 1.168.224.37333.14933.69867.35733.976.624s.496.576.656.928.24.73067.24 1.136zm10.853 4.288c1.0987 0 2.1013.17067 3.008.512.9173.34133 1.7013.83733 2.352 1.488.6613.6507 1.1733 1.4507 1.536 2.4.3733.9387.56 2.0053.56 3.2 0 .3733-.016.6773-.048.912s-.0907.4213-.176.56-.2027.2347-.352.288c-.1387.0533-.32.08-.544.08h-9.568c.16 1.3867.5813 2.3947 1.264 3.024.6827.6187 1.5627.928 2.64.928.576 0 1.072-.0693 1.488-.208s.784-.2933 1.104-.464c.3307-.1707.6293-.3253.896-.464.2773-.1387.5653-.208.864-.208.3947 0 .6933.144.896.432l1.44 1.776c-.512.5867-1.0667 1.0667-1.664 1.44-.5867.3627-1.1947.6507-1.824.864-.6187.2027-1.2427.3413-1.872.416-.6187.0853-1.2107.128-1.776.128-1.1627 0-2.256-.1867-3.28-.56-1.0133-.384-1.904-.9493-2.672-1.696-.7573-.7467-1.36-1.6747-1.808-2.784-.43733-1.1093-.656-2.4-.656-3.872 0-1.1093.18667-2.16.56-3.152.384-.992.928-1.8613 1.632-2.608.7147-.74667 1.5733-1.33867 2.576-1.776 1.0133-.43733 2.1547-.656 3.424-.656zm.096 3.424c-.9493 0-1.6907.272-2.224.816-.5333.5333-.8853 1.3067-1.056 2.32h6.192c0-.3947-.0533-.7787-.16-1.152-.096-.3733-.2613-.704-.496-.992-.224-.2987-.5227-.5387-.896-.72s-.8267-.272-1.36-.272zm10.2062 1.696h8.6401v4h-8.6401zm19.5878-5.12c1.0987 0 2.1013.17067 3.008.512.9173.34133 1.7013.83733 2.352 1.488.6613.6507 1.1733 1.4507 1.536 2.4.3733.9387.56 2.0053.56 3.2 0 .3733-.016.6773-.048.912s-.0907.4213-.176.56-.2027.2347-.352.288c-.1387.0533-.32.08-.544.08h-9.568c.16 1.3867.5813 2.3947 1.264 3.024.6827.6187 1.5627.928 2.64.928.576 0 1.072-.0693 1.488-.208s.784-.2933 1.104-.464c.3307-.1707.6293-.3253.896-.464.2773-.1387.5653-.208.864-.208.3947 0 .6933.144.896.432l1.44 1.776c-.512.5867-1.0667 1.0667-1.664 1.44-.5867.3627-1.1947.6507-1.824.864-.6187.2027-1.2427.3413-1.872.416-.6187.0853-1.2107.128-1.776.128-1.1627 0-2.256-.1867-3.28-.56-1.0133-.384-1.904-.9493-2.672-1.696-.7573-.7467-1.36-1.6747-1.808-2.784-.4373-1.1093-.656-2.4-.656-3.872 0-1.1093.1867-2.16.56-3.152.384-.992.928-1.8613 1.632-2.608.7147-.74667 1.5733-1.33867 2.576-1.776 1.0133-.43733 2.1547-.656 3.424-.656zm.096 3.424c-.9493 0-1.6907.272-2.224.816-.5333.5333-.8853 1.3067-1.056 2.32h6.192c0-.3947-.0533-.7787-.16-1.152-.096-.3733-.2613-.704-.496-.992-.224-.2987-.5227-.5387-.896-.72s-.8267-.272-1.36-.272zm10.5262 13.424v-16.592h2.944c.2454 0 .448.02133.608.064.1707.04267.3094.112.416.208.1174.08533.2027.20267.256.352.064.14933.1174.33067.16.544l.272 1.552c.608-.9387 1.2907-1.68 2.048-2.224.7574-.544 1.584-.816 2.48-.816.7574 0 1.3654.18133 1.824.544l-.64 3.648c-.0426.224-.128.384-.256.48-.128.0853-.2986.128-.512.128-.1813 0-.3946-.0213-.64-.064-.2453-.0533-.5546-.08-.928-.08-1.3013 0-2.3253.6933-3.072 2.08v10.176zm24.6823 0c-.4693 0-.8267-.064-1.072-.192-.2347-.128-.432-.3947-.592-.8l-.352-.912c-.416.352-.816.6613-1.2.928s-.784.496-1.2.688c-.4053.1813-.8427.3147-1.312.4-.4587.096-.9707.144-1.536.144-.7573 0-1.4453-.096-2.064-.288-.6187-.2027-1.1467-.496-1.584-.88-.4267-.384-.7573-.8587-.992-1.424-.2347-.576-.352-1.2373-.352-1.984 0-.5867.1493-1.1893.448-1.808s.816-1.1787 1.552-1.68c.736-.512 1.728-.9387 2.976-1.28s2.8213-.5333 4.72-.576v-.704c0-.9707-.2027-1.6693-.608-2.096-.3947-.4373-.96-.656-1.696-.656-.5867 0-1.0667.064-1.44.192s-.7093.272-1.008.432c-.288.16-.5707.304-.848.432s-.608.192-.992.192c-.3413 0-.6347-.08-.88-.24-.2347-.1707-.4213-.3787-.56-.624l-.896-1.552c1.0027-.88533 2.112-1.54133 3.328-1.968 1.2267-.43733 2.5387-.656 3.936-.656 1.0027 0 1.904.16533 2.704.496.8107.32 1.4933.77333 2.048 1.36.5653.576.9973 1.264 1.296 2.064s.448 1.6747.448 2.624v10.368zm-5.696-3.024c.64 0 1.2-.112 1.68-.336s.9653-.5867 1.456-1.088v-2.304c-.992.0427-1.808.128-2.448.256s-1.1467.288-1.52.48-.6347.4107-.784.656c-.1387.2453-.208.512-.208.8 0 .5653.1547.9653.464 1.2.3093.224.7627.336 1.36.336zm11.81 3.024v-23.952h4.96v9.12c.6187-.608 1.3173-1.09333 2.096-1.456.7893-.37333 1.712-.56 2.768-.56.864 0 1.6635.18667 2.3995.56s1.371.92267 1.904 1.648c.534.7147.95 1.5947 1.248 2.64.31 1.0453.464 2.2347.464 3.568 0 1.248-.176 2.4-.528 3.456-.341 1.056-.826 1.9733-1.456 2.752-.618.7787-1.365 1.3867-2.24 1.824-.8635.4373-1.8235.656-2.8795.656-.4907 0-.9333-.048-1.328-.144-.384-.096-.7413-.2293-1.072-.4-.32-.1813-.6187-.3947-.896-.64-.2667-.2453-.528-.512-.784-.8l-.176.832c-.0747.3413-.2133.576-.416.704-.192.128-.448.192-.768.192zm8.096-13.12c-.3627 0-.6933.0373-.992.112-.288.064-.56.16-.816.288-.2453.128-.4747.2933-.688.496-.2133.192-.4267.416-.64.672v7.04c.3733.416.7787.7093 1.216.88.4373.16.896.24 1.376.24.4587 0 .88-.0907 1.264-.272s.7147-.4693.992-.864c.288-.4053.512-.928.672-1.568s.24-1.4187.24-2.336c0-.8747-.064-1.6107-.192-2.208s-.3093-1.0773-.544-1.44c-.224-.3733-.496-.64-.816-.8s-.6773-.24-1.072-.24zm15.9065-3.472v16.592h-4.96v-16.592zm.576-4.544c0 .39467-.08.768-.24 1.12-.16.34133-.379.64533-.656.912-.277.256-.603.464-.976.624-.363.14933-.752.224-1.168.224-.405 0-.784-.07467-1.136-.224-.352-.16-.667-.368-.944-.624-.267-.26667-.48-.57067-.64-.912-.149-.352-.224-.72533-.224-1.12 0-.40533.075-.784.224-1.136.16-.352.373-.66133.64-.928.277-.26667.592-.47467.944-.624s.731-.224 1.136-.224c.416 0 .805.07467 1.168.224.373.14933.699.35733.976.624s.496.576.656.928.24.73067.24 1.136zm2.789 18.624c0-.384.069-.7413.208-1.072.149-.3307.347-.6187.592-.864.256-.2453.555-.4373.896-.576.341-.1493.715-.224 1.12-.224.395 0 .763.0747 1.104.224.341.1387.64.3307.896.576s.453.5333.592.864c.149.3307.224.688.224 1.072s-.075.7467-.224 1.088c-.139.3307-.336.6187-.592.864s-.555.4373-.896.576-.709.208-1.104.208c-.405 0-.779-.0693-1.12-.208s-.64-.3307-.896-.576c-.245-.2453-.443-.5333-.592-.864-.139-.3413-.208-.704-.208-1.088zm8.842 2.512v-16.592h3.072c.31 0 .566.06933.768.208.214.13867.363.34667.448.624l.288.96c.32-.29867.651-.576.992-.832.342-.256.704-.46933 1.088-.64.395-.18133.816-.32 1.264-.416.459-.10667.955-.16 1.488-.16.907 0 1.707.16 2.4.48.704.30933 1.296.74667 1.776 1.312.48.5547.843 1.2213 1.088 2 .246.768.368 1.6053.368 2.512v10.544h-4.96v-10.544c0-.8107-.186-1.44-.56-1.888-.373-.4587-.922-.688-1.648-.688-.544 0-1.056.1173-1.536.352s-.938.5493-1.376.944v11.824zm25.987-16.848c1.099 0 2.101.17067 3.008.512.917.34133 1.701.83733 2.352 1.488.661.6507 1.173 1.4507 1.536 2.4.373.9387.56 2.0053.56 3.2 0 .3733-.016.6773-.048.912s-.091.4213-.176.56-.203.2347-.352.288c-.139.0533-.32.08-.544.08h-9.568c.16 1.3867.581 2.3947 1.264 3.024.683.6187 1.563.928 2.64.928.576 0 1.072-.0693 1.488-.208s.784-.2933 1.104-.464c.331-.1707.629-.3253.896-.464.277-.1387.565-.208.864-.208.395 0 .693.144.896.432l1.44 1.776c-.512.5867-1.067 1.0667-1.664 1.44-.587.3627-1.195.6507-1.824.864-.619.2027-1.243.3413-1.872.416-.619.0853-1.211.128-1.776.128-1.163 0-2.256-.1867-3.28-.56-1.013-.384-1.904-.9493-2.672-1.696-.757-.7467-1.36-1.6747-1.808-2.784-.437-1.1093-.656-2.4-.656-3.872 0-1.1093.187-2.16.56-3.152.384-.992.928-1.8613 1.632-2.608.715-.74667 1.573-1.33867 2.576-1.776 1.013-.43733 2.155-.656 3.424-.656zm.096 3.424c-.949 0-1.691.272-2.224.816-.533.5333-.885 1.3067-1.056 2.32h6.192c0-.3947-.053-.7787-.16-1.152-.096-.3733-.261-.704-.496-.992-.224-.2987-.523-.5387-.896-.72s-.827-.272-1.36-.272zm16.35 13.68c-.789 0-1.488-.112-2.096-.336-.597-.2347-1.104-.56-1.52-.976-.405-.4267-.714-.9387-.928-1.536-.213-.5973-.32-1.264-.32-2v-8.576h-1.408c-.256 0-.474-.08-.656-.24-.181-.1707-.272-.416-.272-.736v-1.936l2.64-.512.976-4.048c.128-.512.491-.768 1.088-.768h2.592v4.848h4.032v3.392h-4.032v8.24c0 .384.091.704.272.96.192.2453.464.368.816.368.182 0 .331-.016.448-.048.128-.0427.235-.0853.32-.128.096-.0533.182-.096.256-.128.086-.0427.182-.064.288-.064.15 0 .267.0373.352.112.096.064.192.1707.288.32l1.504 2.352c-.64.48-1.36.8427-2.16 1.088-.8.2347-1.626.352-2.48.352z" fill="#121111"/></svg>

<svg width="173" height="26" viewBox="0 0 173 26" fill="none" xmlns="http://www.w3.org/2000/svg">
<path d="M6.04 8.408V25H1.08V8.408H6.04ZM6.616 3.864C6.616 4.25867 6.536 4.632 6.376 4.984C6.216 5.32533 5.99733 5.62933 5.72 5.896C5.44267 6.152 5.11733 6.36 4.744 6.52C4.38133 6.66933 3.992 6.744 3.576 6.744C3.17067 6.744 2.792 6.66933 2.44 6.52C2.088 6.36 1.77333 6.152 1.496 5.896C1.22933 5.62933 1.016 5.32533 0.856 4.984C0.706667 4.632 0.632 4.25867 0.632 3.864C0.632 3.45867 0.706667 3.08 0.856 2.728C1.016 2.376 1.22933 2.06667 1.496 1.8C1.77333 1.53333 2.088 1.32533 2.44 1.176C2.792 1.02667 3.17067 0.952 3.576 0.952C3.992 0.952 4.38133 1.02667 4.744 1.176C5.11733 1.32533 5.44267 1.53333 5.72 1.8C5.99733 2.06667 6.216 2.376 6.376 2.728C6.536 3.08 6.616 3.45867 6.616 3.864ZM17.469 8.152C18.5677 8.152 19.5703 8.32267 20.477 8.664C21.3943 9.00533 22.1783 9.50133 22.829 10.152C23.4903 10.8027 24.0023 11.6027 24.365 12.552C24.7383 13.4907 24.925 14.5573 24.925 15.752C24.925 16.1253 24.909 16.4293 24.877 16.664C24.845 16.8987 24.7863 17.0853 24.701 17.224C24.6157 17.3627 24.4983 17.4587 24.349 17.512C24.2103 17.5653 24.029 17.592 23.805 17.592H14.237C14.397 18.9787 14.8183 19.9867 15.501 20.616C16.1837 21.2347 17.0637 21.544 18.141 21.544C18.717 21.544 19.213 21.4747 19.629 21.336C20.045 21.1973 20.413 21.0427 20.733 20.872C21.0637 20.7013 21.3623 20.5467 21.629 20.408C21.9063 20.2693 22.1943 20.2 22.493 20.2C22.8877 20.2 23.1863 20.344 23.389 20.632L24.829 22.408C24.317 22.9947 23.7623 23.4747 23.165 23.848C22.5783 24.2107 21.9703 24.4987 21.341 24.712C20.7223 24.9147 20.0983 25.0533 19.469 25.128C18.8503 25.2133 18.2583 25.256 17.693 25.256C16.5303 25.256 15.437 25.0693 14.413 24.696C13.3997 24.312 12.509 23.7467 11.741 23C10.9837 22.2533 10.381 21.3253 9.933 20.216C9.49567 19.1067 9.277 17.816 9.277 16.344C9.277 15.2347 9.46367 14.184 9.837 13.192C10.221 12.2 10.765 11.3307 11.469 10.584C12.1837 9.83733 13.0423 9.24533 14.045 8.808C15.0583 8.37067 16.1997 8.152 17.469 8.152ZM17.565 11.576C16.6157 11.576 15.8743 11.848 15.341 12.392C14.8077 12.9253 14.4557 13.6987 14.285 14.712H20.477C20.477 14.3173 20.4237 13.9333 20.317 13.56C20.221 13.1867 20.0557 12.856 19.821 12.568C19.597 12.2693 19.2983 12.0293 18.925 11.848C18.5517 11.6667 18.0983 11.576 17.565 11.576ZM27.7712 13.272H36.4113V17.272H27.7712V13.272ZM47.359 8.152C48.4577 8.152 49.4603 8.32267 50.367 8.664C51.2843 9.00533 52.0683 9.50133 52.719 10.152C53.3803 10.8027 53.8923 11.6027 54.255 12.552C54.6283 13.4907 54.815 14.5573 54.815 15.752C54.815 16.1253 54.799 16.4293 54.767 16.664C54.735 16.8987 54.6763 17.0853 54.591 17.224C54.5057 17.3627 54.3883 17.4587 54.239 17.512C54.1003 17.5653 53.919 17.592 53.695 17.592H44.127C44.287 18.9787 44.7083 19.9867 45.391 20.616C46.0737 21.2347 46.9537 21.544 48.031 21.544C48.607 21.544 49.103 21.4747 49.519 21.336C49.935 21.1973 50.303 21.0427 50.623 20.872C50.9537 20.7013 51.2523 20.5467 51.519 20.408C51.7963 20.2693 52.0843 20.2 52.383 20.2C52.7777 20.2 53.0763 20.344 53.279 20.632L54.719 22.408C54.207 22.9947 53.6523 23.4747 53.055 23.848C52.4683 24.2107 51.8603 24.4987 51.231 24.712C50.6123 24.9147 49.9883 25.0533 49.359 25.128C48.7403 25.2133 48.1483 25.256 47.583 25.256C46.4203 25.256 45.327 25.0693 44.303 24.696C43.2897 24.312 42.399 23.7467 41.631 23C40.8737 22.2533 40.271 21.3253 39.823 20.216C39.3857 19.1067 39.167 17.816 39.167 16.344C39.167 15.2347 39.3537 14.184 39.727 13.192C40.111 12.2 40.655 11.3307 41.359 10.584C42.0737 9.83733 42.9323 9.24533 43.935 8.808C44.9483 8.37067 46.0897 8.152 47.359 8.152ZM47.455 11.576C46.5057 11.576 45.7643 11.848 45.231 12.392C44.6977 12.9253 44.3457 13.6987 44.175 14.712H50.367C50.367 14.3173 50.3137 13.9333 50.207 13.56C50.111 13.1867 49.9457 12.856 49.711 12.568C49.487 12.2693 49.1883 12.0293 48.815 11.848C48.4417 11.6667 47.9883 11.576 47.455 11.576ZM57.9812 25V8.408H60.9252C61.1706 8.408 61.3732 8.42933 61.5332 8.472C61.7039 8.51467 61.8426 8.584 61.9492 8.68C62.0666 8.76533 62.1519 8.88267 62.2052 9.032C62.2692 9.18133 62.3226 9.36267 62.3652 9.576L62.6372 11.128C63.2452 10.1893 63.9279 9.448 64.6852 8.904C65.4426 8.36 66.2692 8.088 67.1652 8.088C67.9226 8.088 68.5306 8.26933 68.9892 8.632L68.3492 12.28C68.3066 12.504 68.2212 12.664 68.0932 12.76C67.9652 12.8453 67.7946 12.888 67.5812 12.888C67.3999 12.888 67.1866 12.8667 66.9412 12.824C66.6959 12.7707 66.3866 12.744 66.0132 12.744C64.7119 12.744 63.6879 13.4373 62.9412 14.824V25H57.9812ZM82.6635 25C82.1942 25 81.8368 24.936 81.5915 24.808C81.3568 24.68 81.1595 24.4133 80.9995 24.008L80.6475 23.096C80.2315 23.448 79.8315 23.7573 79.4475 24.024C79.0635 24.2907 78.6635 24.52 78.2475 24.712C77.8422 24.8933 77.4048 25.0267 76.9355 25.112C76.4768 25.208 75.9648 25.256 75.3995 25.256C74.6422 25.256 73.9542 25.16 73.3355 24.968C72.7168 24.7653 72.1888 24.472 71.7515 24.088C71.3248 23.704 70.9942 23.2293 70.7595 22.664C70.5248 22.088 70.4075 21.4267 70.4075 20.68C70.4075 20.0933 70.5568 19.4907 70.8555 18.872C71.1542 18.2533 71.6715 17.6933 72.4075 17.192C73.1435 16.68 74.1355 16.2533 75.3835 15.912C76.6315 15.5707 78.2048 15.3787 80.1035 15.336V14.632C80.1035 13.6613 79.9008 12.9627 79.4955 12.536C79.1008 12.0987 78.5355 11.88 77.7995 11.88C77.2128 11.88 76.7328 11.944 76.3595 12.072C75.9862 12.2 75.6502 12.344 75.3515 12.504C75.0635 12.664 74.7808 12.808 74.5035 12.936C74.2262 13.064 73.8955 13.128 73.5115 13.128C73.1702 13.128 72.8768 13.048 72.6315 12.888C72.3968 12.7173 72.2102 12.5093 72.0715 12.264L71.1755 10.712C72.1782 9.82667 73.2875 9.17067 74.5035 8.744C75.7302 8.30667 77.0422 8.088 78.4395 8.088C79.4422 8.088 80.3435 8.25333 81.1435 8.584C81.9542 8.904 82.6368 9.35733 83.1915 9.944C83.7568 10.52 84.1888 11.208 84.4875 12.008C84.7862 12.808 84.9355 13.6827 84.9355 14.632V25H82.6635ZM76.9675 21.976C77.6075 21.976 78.1675 21.864 78.6475 21.64C79.1275 21.416 79.6128 21.0533 80.1035 20.552V18.248C79.1115 18.2907 78.2955 18.376 77.6555 18.504C77.0155 18.632 76.5088 18.792 76.1355 18.984C75.7622 19.176 75.5008 19.3947 75.3515 19.64C75.2128 19.8853 75.1435 20.152 75.1435 20.44C75.1435 21.0053 75.2982 21.4053 75.6075 21.64C75.9168 21.864 76.3702 21.976 76.9675 21.976ZM88.7775 25V1.048H93.7375V10.168C94.3562 9.56 95.0548 9.07467 95.8335 8.712C96.6228 8.33867 97.5455 8.152 98.6015 8.152C99.4655 8.152 100.265 8.33867 101.001 8.712C101.737 9.08533 102.372 9.63467 102.905 10.36C103.439 11.0747 103.855 11.9547 104.153 13C104.463 14.0453 104.617 15.2347 104.617 16.568C104.617 17.816 104.441 18.968 104.089 20.024C103.748 21.08 103.263 21.9973 102.633 22.776C102.015 23.5547 101.268 24.1627 100.393 24.6C99.5295 25.0373 98.5695 25.256 97.5135 25.256C97.0228 25.256 96.5802 25.208 96.1855 25.112C95.8015 25.016 95.4442 24.8827 95.1135 24.712C94.7935 24.5307 94.4948 24.3173 94.2175 24.072C93.9508 23.8267 93.6895 23.56 93.4335 23.272L93.2575 24.104C93.1828 24.4453 93.0442 24.68 92.8415 24.808C92.6495 24.936 92.3935 25 92.0735 25H88.7775ZM96.8735 11.88C96.5108 11.88 96.1802 11.9173 95.8815 11.992C95.5935 12.056 95.3215 12.152 95.0655 12.28C94.8202 12.408 94.5908 12.5733 94.3775 12.776C94.1642 12.968 93.9508 13.192 93.7375 13.448V20.488C94.1108 20.904 94.5162 21.1973 94.9535 21.368C95.3908 21.528 95.8495 21.608 96.3295 21.608C96.7882 21.608 97.2095 21.5173 97.5935 21.336C97.9775 21.1547 98.3082 20.8667 98.5855 20.472C98.8735 20.0667 99.0975 19.544 99.2575 18.904C99.4175 18.264 99.4975 17.4853 99.4975 16.568C99.4975 15.6933 99.4335 14.9573 99.3055 14.36C99.1775 13.7627 98.9962 13.2827 98.7615 12.92C98.5375 12.5467 98.2655 12.28 97.9455 12.12C97.6255 11.96 97.2682 11.88 96.8735 11.88ZM112.78 8.408V25H107.82V8.408H112.78ZM113.356 3.864C113.356 4.25867 113.276 4.632 113.116 4.984C112.956 5.32533 112.737 5.62933 112.46 5.896C112.183 6.152 111.857 6.36 111.484 6.52C111.121 6.66933 110.732 6.744 110.316 6.744C109.911 6.744 109.532 6.66933 109.18 6.52C108.828 6.36 108.513 6.152 108.236 5.896C107.969 5.62933 107.756 5.32533 107.596 4.984C107.447 4.632 107.372 4.25867 107.372 3.864C107.372 3.45867 107.447 3.08 107.596 2.728C107.756 2.376 107.969 2.06667 108.236 1.8C108.513 1.53333 108.828 1.32533 109.18 1.176C109.532 1.02667 109.911 0.952 110.316 0.952C110.732 0.952 111.121 1.02667 111.484 1.176C111.857 1.32533 112.183 1.53333 112.46 1.8C112.737 2.06667 112.956 2.376 113.116 2.728C113.276 3.08 113.356 3.45867 113.356 3.864ZM116.145 22.488C116.145 22.104 116.214 21.7467 116.353 21.416C116.502 21.0853 116.7 20.7973 116.945 20.552C117.201 20.3067 117.5 20.1147 117.841 19.976C118.182 19.8267 118.556 19.752 118.961 19.752C119.356 19.752 119.724 19.8267 120.065 19.976C120.406 20.1147 120.705 20.3067 120.961 20.552C121.217 20.7973 121.414 21.0853 121.553 21.416C121.702 21.7467 121.777 22.104 121.777 22.488C121.777 22.872 121.702 23.2347 121.553 23.576C121.414 23.9067 121.217 24.1947 120.961 24.44C120.705 24.6853 120.406 24.8773 120.065 25.016C119.724 25.1547 119.356 25.224 118.961 25.224C118.556 25.224 118.182 25.1547 117.841 25.016C117.5 24.8773 117.201 24.6853 116.945 24.44C116.7 24.1947 116.502 23.9067 116.353 23.576C116.214 23.2347 116.145 22.872 116.145 22.488ZM124.987 25V8.408H128.059C128.369 8.408 128.625 8.47733 128.827 8.616C129.041 8.75467 129.19 8.96267 129.275 9.24L129.563 10.2C129.883 9.90133 130.214 9.624 130.555 9.368C130.897 9.112 131.259 8.89867 131.643 8.728C132.038 8.54667 132.459 8.408 132.907 8.312C133.366 8.20533 133.862 8.152 134.395 8.152C135.302 8.152 136.102 8.312 136.795 8.632C137.499 8.94133 138.091 9.37867 138.571 9.944C139.051 10.4987 139.414 11.1653 139.659 11.944C139.905 12.712 140.027 13.5493 140.027 14.456V25H135.067V14.456C135.067 13.6453 134.881 13.016 134.507 12.568C134.134 12.1093 133.585 11.88 132.859 11.88C132.315 11.88 131.803 11.9973 131.323 12.232C130.843 12.4667 130.385 12.7813 129.947 13.176V25H124.987ZM150.974 8.152C152.073 8.152 153.075 8.32267 153.982 8.664C154.899 9.00533 155.683 9.50133 156.334 10.152C156.995 10.8027 157.507 11.6027 157.87 12.552C158.243 13.4907 158.43 14.5573 158.43 15.752C158.43 16.1253 158.414 16.4293 158.382 16.664C158.35 16.8987 158.291 17.0853 158.206 17.224C158.121 17.3627 158.003 17.4587 157.854 17.512C157.715 17.5653 157.534 17.592 157.31 17.592H147.742C147.902 18.9787 148.323 19.9867 149.006 20.616C149.689 21.2347 150.569 21.544 151.646 21.544C152.222 21.544 152.718 21.4747 153.134 21.336C153.55 21.1973 153.918 21.0427 154.238 20.872C154.569 20.7013 154.867 20.5467 155.134 20.408C155.411 20.2693 155.699 20.2 155.998 20.2C156.393 20.2 156.691 20.344 156.894 20.632L158.334 22.408C157.822 22.9947 157.267 23.4747 156.67 23.848C156.083 24.2107 155.475 24.4987 154.846 24.712C154.227 24.9147 153.603 25.0533 152.974 25.128C152.355 25.2133 151.763 25.256 151.198 25.256C150.035 25.256 148.942 25.0693 147.918 24.696C146.905 24.312 146.014 23.7467 145.246 23C144.489 22.2533 143.886 21.3253 143.438 20.216C143.001 19.1067 142.782 17.816 142.782 16.344C142.782 15.2347 142.969 14.184 143.342 13.192C143.726 12.2 144.27 11.3307 144.974 10.584C145.689 9.83733 146.547 9.24533 147.55 8.808C148.563 8.37067 149.705 8.152 150.974 8.152ZM151.07 11.576C150.121 11.576 149.379 11.848 148.846 12.392C148.313 12.9253 147.961 13.6987 147.79 14.712H153.982C153.982 14.3173 153.929 13.9333 153.822 13.56C153.726 13.1867 153.561 12.856 153.326 12.568C153.102 12.2693 152.803 12.0293 152.43 11.848C152.057 11.6667 151.603 11.576 151.07 11.576ZM167.42 25.256C166.631 25.256 165.932 25.144 165.324 24.92C164.727 24.6853 164.22 24.36 163.804 23.944C163.399 23.5173 163.09 23.0053 162.876 22.408C162.663 21.8107 162.556 21.144 162.556 20.408V11.832H161.148C160.892 11.832 160.674 11.752 160.492 11.592C160.311 11.4213 160.22 11.176 160.22 10.856V8.92L162.86 8.408L163.836 4.36C163.964 3.848 164.327 3.592 164.924 3.592H167.516V8.44H171.548V11.832H167.516V20.072C167.516 20.456 167.607 20.776 167.788 21.032C167.98 21.2773 168.252 21.4 168.604 21.4C168.786 21.4 168.935 21.384 169.052 21.352C169.18 21.3093 169.287 21.2667 169.372 21.224C169.468 21.1707 169.554 21.128 169.628 21.096C169.714 21.0533 169.81 21.032 169.916 21.032C170.066 21.032 170.183 21.0693 170.268 21.144C170.364 21.208 170.46 21.3147 170.556 21.464L172.06 23.816C171.42 24.296 170.7 24.6587 169.9 24.904C169.1 25.1387 168.274 25.256 167.42 25.256Z" fill="#121111"/>
</svg>
